X:2039
T:Battle of the Somme
R:Waltz
C:Pipe Major William Laurie (1882-1916)
O:Scotland
Z:Paul Hardy's Session Tunebook 2015 (see www.paulhardy.net). Creative Commons cc by-nc-sa licenced.
M:9/8
L:1/8
Q:3/8=70
K:D
A|"D"f>af d3 d>cd|"G"e>dG B3 "D"A3|"G"B>GB "D"A3 d3|f>af "A"e3- e2||
A|"D"f>af d3 d>cd|"G"e>dG B3 "D"A3|"G"B>GB "D"A3 f3|"A"e>fe "D"d3- d2:|
|:d|d>cd "A"e3 A2e|e>fg "D"f<af d3|f>ef "G"g3 B2g|"D"fa>f "A"e3- e2||
A|"D"f>af d3 d>cd|"G"e>dG B3 "D"A3|"G"B>GB "D"A3 f3|"A"e>fe "D"d3- d2:|

